; generated by PrusaSlicer 2.7.4 on 2024-07-30 at 18:57:53 UTC

; 

; external perimeters extrusion width = 0.45mm
; perimeters extrusion width = 0.40mm
; infill extrusion width = 0.45mm
; solid infill extrusion width = 0.50mm
; top infill extrusion width = 0.45mm
; first layer extrusion width = 0.56mm

M201 X2500 Y2500 Z800 E2500 ; sets maximum accelerations, mm/sec^2
M203 X300 Y250 Z8 E80 ; sets maximum feedrates, mm / sec
M204 S2500 T2500 ; sets acceleration (S) and retract acceleration (R), mm/sec^2
M205 X15.00 Y10.00 Z2.00 E10.00 ; sets the jerk limits, mm/sec
M205 S0 T0 ; sets the minimum extruding and travel feed rate, mm/sec
;TYPE:Custom
G90 ; use absolute coordinates
M83 ; extruder relative mode
M104 S215 ; set extruder temp
M140 S60 ; set bed temp
M190 S60 ; wait for bed temp
M109 S215 ; wait for extruder temp
G28                                        ; move X/Y/Z to min endstops
G1 Z0.28                                   ; lift nozzle a bit 
G92 E0 
G1 Y3 F1800                                    ; zero the extruded length 
G1 X60  E25 F500                       ; Extrude 25mm of filament in a 5cm line. 
G92 E0                                     ; zero the extruded length again 
G1 E-2 F500                                ; Retract a little 
G1 X70 F4000                              ; Quickly wipe away from the filament line
M117
G21 ; set units to millimeters
G90 ; use absolute coordinates
M82 ; use absolute distances for extrusion
G92 E0
M107
;LAYER_CHANGE
;Z:0.28
;HEIGHT:0.28
G1 E-2 F4800
G92 E0
G1 Z.28 F7200
G1 X110.072 Y110.282
G1 E2 F4800
G92 E0
M204 S2000
;TYPE:Skirt/Brim
;WIDTH:0.56
G1 F2155
G1 X111.121 Y109.386 E.08028
G1 X112.376 Y108.701 E.16349
G1 X113.747 Y108.296 E.24668
G1 X115.088 Y108.191 E.32496
G1 X116.205 Y108.286 E.3902
G1 X117.561 Y108.675 E.4723
G1 X118.815 Y109.341 E.55493
G1 X119.921 Y110.274 E.63914
G1 X120.721 Y111.294 E.71458
G1 X121.256 Y112.287 E.78022
G1 X121.668 Y113.553 E.8577
G1 X121.824 Y115.093 E.94778
G1 X121.656 Y116.507 E1.03065
G1 X121.239 Y117.753 E1.10711
G1 X120.721 Y118.706 E1.17023
G1 X119.792 Y119.853 E1.25613
G1 X118.761 Y120.694 E1.33356
G1 X117.412 Y121.384 E1.42174
G1 X116.004 Y121.749 E1.50639
G1 X114.668 Y121.811 E1.58422
G1 X113.605 Y121.673 E1.6466
G1 X112.201 Y121.22 E1.73245
G1 X111.004 Y120.531 E1.81282
G1 X109.917 Y119.555 E1.89784
G1 X109.073 Y118.38 E1.98203
G1 X108.548 Y117.201 E2.05714
G1 X108.275 Y116.127 E2.12163
G1 X108.178 Y114.814 E2.19825
G1 X108.395 Y113.276 E2.28864
G1 X108.823 Y112.105 E2.3612
G1 X109.17 Y111.46 E2.40382
G1 X110.036 Y110.33 E2.48667
M204 S2500
G1 X110.036 Y110.33 F7200
G1 X110.422 Y110.64
M204 S2000
G1 F2155
G1 X111.397 Y109.802 E2.56149
G1 X112.563 Y109.165 E2.63881
G1 X113.838 Y108.788 E2.71618
G1 X114.681 Y108.689 E2.76558
G1 X115.611 Y108.706 E2.81971
G1 X116.8 Y108.943 E2.89026
G1 X117.755 Y109.316 E2.94992
G1 X118.916 Y110.039 E3.02951
G1 X119.891 Y110.994 E3.10893
G1 X120.575 Y112.015 E3.18045
G1 X121.042 Y113.143 E3.2515
G1 X121.297 Y114.485 E3.33099
G1 X121.296 Y115.518 E3.39111
G1 X121.042 Y116.856 E3.47037
G1 X120.563 Y118.007 E3.54292
G1 X119.889 Y119.008 E3.61315
G1 X118.911 Y119.965 E3.69278
G1 X117.753 Y120.685 E3.77213
G1 X116.79 Y121.06 E3.83227
G1 X115.445 Y121.306 E3.91184
G1 X114.194 Y121.273 E3.98467
G1 X113.025 Y121.006 E4.05445
G1 X111.78 Y120.438 E4.13409
G1 X110.945 Y119.842 E4.19379
G1 X109.994 Y118.857 E4.27347
G1 X109.281 Y117.694 E4.35286
G1 X108.864 Y116.53 E4.42481
G1 X108.687 Y115.328 E4.49551
G1 X108.678 Y114.825 E4.52479
G1 X108.878 Y113.408 E4.60807
G1 X109.017 Y112.972 E4.6347
G1 X109.59 Y111.732 E4.71419
G1 X110.386 Y110.687 E4.79064
M204 S2500
G1 X110.386 Y110.687 F7200
G1 X110.772 Y110.997
M204 S2000
G1 F2155
G1 X111.675 Y110.218 E4.86004
G1 X112.751 Y109.629 E4.93143
G1 X113.93 Y109.28 E5.00298
G1 X115.077 Y109.191 E5.06993
G1 X115.995 Y109.264 E5.12352
G1 X117.165 Y109.593 E5.19425
G1 X118.245 Y110.163 E5.26532
G1 X119.193 Y110.96 E5.3374
G1 X119.898 Y111.862 E5.40402
G1 X120.327 Y112.657 E5.45659
G1 X120.683 Y113.725 E5.5221
G1 X120.824 Y115.059 E5.60016
G1 X120.683 Y116.275 E5.6714
G1 X120.327 Y117.343 E5.73691
G1 X119.898 Y118.138 E5.78948
G1 X119.11 Y119.122 E5.86284
G1 X118.245 Y119.837 E5.92815
G1 X117.055 Y120.45 E6.00605
G1 X115.868 Y120.759 E6.07743
G1 X114.683 Y120.811 E6.14646
G1 X113.838 Y120.701 E6.19605
G1 X112.639 Y120.321 E6.26925
G1 X111.609 Y119.735 E6.33821
G1 X110.671 Y118.897 E6.41141
G1 X109.947 Y117.893 E6.48344
G1 X109.485 Y116.851 E6.54977
G1 X109.263 Y115.975 E6.60236
G1 X109.178 Y114.836 E6.66883
G1 X109.361 Y113.539 E6.74506
G1 X109.741 Y112.501 E6.80939
G1 X110.009 Y112.004 E6.84225
G1 X110.735 Y111.045 E6.91225
M204 S2500
G1 X110.735 Y111.045 F7200
G1 X111.122 Y111.354
M204 S2000
G1 F2155
G1 X111.953 Y110.634 E6.97624
G1 X112.941 Y110.091 E7.04185
G1 X114.022 Y109.771 E7.10746
G1 X114.712 Y109.688 E7.1479
G1 X115.504 Y109.7 E7.194
G1 X116.545 Y109.91 E7.2558
G1 X117.286 Y110.199 E7.30209
G1 X118.267 Y110.8 E7.36904
G1 X119.094 Y111.599 E7.43596
G1 X119.696 Y112.491 E7.49859
G1 X120.097 Y113.471 E7.56021
G1 X120.304 Y114.602 E7.62712
G1 X120.303 Y115.399 E7.6735
G1 X120.097 Y116.529 E7.74034
G1 X119.696 Y117.509 E7.80196
G1 X119.094 Y118.402 E7.86463
G1 X118.265 Y119.201 E7.93163
G1 X117.285 Y119.801 E7.9985
G1 X116.543 Y120.091 E8.04486
G1 X115.412 Y120.306 E8.11186
G1 X114.324 Y120.281 E8.17519
G1 X113.305 Y120.045 E8.23606
G1 X112.261 Y119.561 E8.30303
G1 X111.614 Y119.099 E8.3493
G1 X110.809 Y118.277 E8.41625
G1 X110.201 Y117.301 E8.48317
G1 X109.833 Y116.285 E8.54606
G1 X109.684 Y115.241 E8.60743
G1 X109.844 Y113.67 E8.69933
G1 X109.953 Y113.324 E8.72044
G1 X110.429 Y112.276 E8.78742
G1 X111.086 Y111.402 E8.85105
M204 S2500
G1 X111.086 Y111.402 F7200
G1 X111.472 Y111.712
M204 S2000
G1 F2155
G1 X112.232 Y111.049 E8.90974
G1 X113.132 Y110.554 E8.96951
G1 X114.117 Y110.262 E9.0293
G1 X115.068 Y110.191 E9.0848
G1 X115.788 Y110.243 E9.12681
G1 X116.772 Y110.513 E9.18619
G1 X117.68 Y110.989 E9.24585
G1 X118.469 Y111.65 E9.30575
G1 X119.074 Y112.429 E9.36315
G1 X119.398 Y113.027 E9.40273
G1 X119.709 Y113.952 E9.45952
G1 X119.824 Y115.029 E9.52255
G1 X119.709 Y116.048 E9.58223
G1 X119.398 Y116.973 E9.63902
G1 X119.074 Y117.571 E9.6786
G1 X118.428 Y118.39 E9.7393
G1 X117.68 Y119.011 E9.79588
G1 X116.719 Y119.508 E9.85884
G1 X115.726 Y119.768 E9.91858
G1 X114.699 Y119.811 E9.9784
G1 X114.072 Y119.728 E10.01521
G1 X113.076 Y119.421 E10.07586
G1 X112.212 Y118.937 E10.13349
G1 X111.421 Y118.235 E10.19504
G1 X110.818 Y117.401 E10.25493
G1 X110.422 Y116.501 E10.31215
G1 X110.254 Y115.842 E10.35173
G1 X110.178 Y114.863 E10.40887
G1 X110.327 Y113.799 E10.47139
G1 X110.66 Y112.897 E10.52734
G1 X111.438 Y111.761 E10.60747
M204 S2500
G1 X111.438 Y111.761 F7200
G1 X111.822 Y112.069
M204 S2000
G1 F2155
G1 X112.512 Y111.463 E10.66091
G1 X113.324 Y111.015 E10.71488
G1 X114.212 Y110.753 E10.76876
G1 X114.727 Y110.688 E10.79897
G1 X115.403 Y110.695 E10.83831
G1 X116.291 Y110.877 E10.89106
G1 X116.82 Y111.084 E10.92412
G1 X117.621 Y111.564 E10.97846
G1 X118.299 Y112.206 E11.0328
G1 X118.816 Y112.966 E11.08629
G1 X119.151 Y113.796 E11.13838
G1 X119.31 Y114.716 E11.19271
G1 X119.31 Y115.284 E11.22576
G1 X119.151 Y116.204 E11.28009
G1 X118.816 Y117.034 E11.33218
G1 X118.299 Y117.794 E11.38567
G1 X117.621 Y118.436 E11.44001
G1 X116.821 Y118.916 E11.4943
G1 X116.292 Y119.123 E11.52736
G1 X115.376 Y119.306 E11.58172
G1 X114.454 Y119.29 E11.63538
G1 X113.586 Y119.085 E11.68728
G1 X112.742 Y118.684 E11.74166
G1 X112.28 Y118.353 E11.77473
G1 X111.621 Y117.693 E11.82901
G1 X111.119 Y116.906 E11.88333
G1 X110.803 Y116.041 E11.93692
G1 X110.68 Y115.155 E11.98898
G1 X110.89 Y113.674 E12.07603
G1 X111.268 Y112.82 E12.13038
G1 X111.786 Y112.117 E12.1812
M204 S2500
G1 E10.7812 F4800
;WIPE_START
G1 F5760
G1 X111.822 Y112.069 E10.7337
G1 X112.347 Y111.608 E10.1812
;WIPE_END
G92 E0
G92 E0
G1 X111.346 Y115.26 F7200
G1 E2 F4800
M204 S2000
;TYPE:External perimeter
G1 F2155
G1 X111.328 Y115.102 E2.00925
G1 X111.328 Y114.901 E2.02095
G1 X111.44 Y114.094 E2.06836
G1 X111.716 Y113.353 E2.11438
G1 X111.814 Y113.174 E2.12626
G1 X112.147 Y112.688 E2.16054
G1 X112.278 Y112.532 E2.17239
G1 X112.88 Y111.999 E2.21918
G1 X113.057 Y111.885 E2.23143
G1 X113.579 Y111.613 E2.26568
G1 X113.769 Y111.539 E2.27755
G1 X114.332 Y111.392 E2.31141
G1 X114.768 Y111.337 E2.33698
G1 X115.058 Y111.34 E2.35386
G1 X115.35 Y111.343 E2.37085
G1 X115.552 Y111.369 E2.3827
G1 X116.125 Y111.506 E2.41699
G1 X116.326 Y111.573 E2.42932
G1 X117.038 Y111.943 E2.47602
G1 X117.204 Y112.062 E2.48791
G1 X117.645 Y112.452 E2.52217
G1 X117.784 Y112.602 E2.53407
G1 X118.122 Y113.075 E2.5679
G1 X118.332 Y113.461 E2.59347
G1 X118.536 Y114.006 E2.62734
G1 X118.586 Y114.204 E2.63922
G1 X118.664 Y114.787 E2.67345
G1 X118.675 Y115 E2.68586
G1 X118.664 Y115.213 E2.69827
G1 X118.586 Y115.796 E2.7325
G1 X118.536 Y115.994 E2.74438
G1 X118.332 Y116.539 E2.77825
G1 X118.122 Y116.925 E2.80382
G1 X117.784 Y117.398 E2.83765
G1 X117.645 Y117.548 E2.84955
G1 X117.204 Y117.938 E2.88381
G1 X117.038 Y118.057 E2.8957
G1 X116.326 Y118.427 E2.9424
G1 X116.125 Y118.494 E2.95473
G1 X115.552 Y118.631 E2.98902
G1 X115.35 Y118.657 E3.00087
G1 X114.768 Y118.663 E3.03474
G1 X114.332 Y118.608 E3.06031
G1 X113.769 Y118.461 E3.09417
G1 X113.579 Y118.387 E3.10604
G1 X113.057 Y118.115 E3.14029
G1 X112.88 Y118.001 E3.15254
G1 X112.278 Y117.468 E3.19933
G1 X112.147 Y117.312 E3.21118
G1 X111.814 Y116.826 E3.24546
G1 X111.716 Y116.647 E3.25734
G1 X111.502 Y116.106 E3.2912
G1 X111.393 Y115.68 E3.31679
G1 X111.353 Y115.32 E3.33787
M204 S2500
G1 X111.353 Y115.32 F7200
G1 X112.1 Y115.021
M204 S2000
G1 F2155
G1 X112.097 Y115 E3.3391
G1 X112.181 Y114.305 E3.37984
G1 X112.43 Y113.651 E3.42056
G1 X112.827 Y113.075 E3.46127
G1 X113.351 Y112.611 E3.502
G1 X113.962 Y112.29 E3.54217
G1 X114.649 Y112.118 E3.58338
G1 X115.35 Y112.118 E3.62417
G1 X116.029 Y112.286 E3.66488
G1 X116.649 Y112.611 E3.70562
G1 X117.173 Y113.075 E3.74635
G1 X117.574 Y113.66 E3.78762
G1 X117.819 Y114.305 E3.82777
G1 X117.903 Y115 E3.86851
G1 X117.819 Y115.695 E3.90925
G1 X117.57 Y116.349 E3.94997
G1 X117.173 Y116.925 E3.99068
G1 X116.649 Y117.389 E4.03141
G1 X116.029 Y117.714 E4.07215
G1 X115.35 Y117.882 E4.11286
G1 X114.65 Y117.882 E4.1536
G1 X113.971 Y117.714 E4.19431
G1 X113.351 Y117.389 E4.23505
G1 X112.827 Y116.925 E4.27578
G1 X112.426 Y116.34 E4.31705
G1 X112.181 Y115.695 E4.3572
G1 X112.107 Y115.08 E4.39325
M204 S2500
G1 X112.107 Y115.08 F7200
G1 X111.727 Y115.12
M204 S2000
;TYPE:Gap fill
;WIDTH:0.328271
G1 F2155
G1 X111.712 Y114.984 E4.39752
G1 X111.806 Y114.229 E4.42127
G1 X111.868 Y114.03 E4.42778
G1 X112.096 Y113.458 E4.447
G1 X112.549 Y112.807 E4.47176
G1 X113.119 Y112.303 E4.49551
G1 X113.74 Y111.968 E4.51754
G1 X113.889 Y111.908 E4.52255
G1 X114.406 Y111.777 E4.5392
G1 X114.79 Y111.728 E4.55129
G1 X115.412 Y111.738 E4.57071
G1 X116.181 Y111.931 E4.59546
G1 X116.855 Y112.285 E4.61923
G1 X117.372 Y112.731 E4.64055
G1 X117.484 Y112.847 E4.64558
G1 X117.79 Y113.283 E4.66221
G1 X117.977 Y113.623 E4.67432
G1 X118.196 Y114.229 E4.69444
G1 X118.289 Y115 E4.71868
G1 X118.196 Y115.771 E4.74292
G1 X117.977 Y116.377 E4.76304
G1 X117.791 Y116.717 E4.77514
G1 X117.484 Y117.153 E4.79179
G1 X117.372 Y117.269 E4.79682
G1 X116.855 Y117.715 E4.81814
G1 X116.181 Y118.069 E4.84191
G1 X115.412 Y118.262 E4.86666
G1 X114.79 Y118.272 E4.88608
G1 X114.406 Y118.224 E4.89816
G1 X113.889 Y118.093 E4.91481
G1 X113.74 Y118.032 E4.91984
G1 X113.119 Y117.697 E4.94187
G1 X112.549 Y117.192 E4.96564
G1 X112.092 Y116.532 E4.9907
G1 X111.874 Y115.985 E5.00908
G1 X111.778 Y115.61 E5.02116
G1 X111.733 Y115.18 E5.03466
M204 S2500
;LAYER_CHANGE
;Z:0.48
;HEIGHT:0.2
; BEFORE_LAYER_CHANGE 1 @ 0.48mm
G1 E3.63466 F4800
;WIPE_START
G1 F5760
G1 X111.727 Y115.12 E3.58692
G1 X111.712 Y114.984 E3.4786
G1 X111.781 Y114.428 E3.03466
;WIPE_END
G92 E0
G1 Z.48 F7200
; AFTER_LAYER_CHANGE 1 @ 0.48mm
M104 S190 ; set temperature
G1 X110.948 Y115.325
G1 E2 F4800
G92 E0
;TYPE:External perimeter
;WIDTH:0.45
G1 F1500
G1 X110.935 Y115.203 E.00415
G1 X110.935 Y114.797 E.01789
G1 X110.976 Y114.393 E.03164
G1 X111.056 Y113.996 E.04535
G1 X111.176 Y113.608 E.0591
G1 X111.333 Y113.234 E.07283
G1 X111.527 Y112.878 E.08655
G1 X111.756 Y112.543 E.10029
G1 X112.017 Y112.232 E.11403
G1 X112.307 Y111.949 E.12775
G1 X112.624 Y111.696 E.14148
G1 X112.965 Y111.476 E.15522
G1 X113.326 Y111.29 E.16897
G1 X113.704 Y111.142 E.18271
G1 X114.094 Y111.032 E.19643
G1 X114.494 Y110.962 E.21018
G1 X114.899 Y110.932 E.22393
G1 X115.153 Y110.938 E.23253
G1 X115.71 Y110.993 E.25148
G1 X116.102 Y111.082 E.26509
G1 X116.487 Y111.212 E.27884
G1 X116.857 Y111.378 E.29257
G1 X117.208 Y111.581 E.30629
G1 X117.537 Y111.818 E.32001
G1 X117.842 Y112.087 E.33378
G1 X118.118 Y112.384 E.3475
G1 X118.363 Y112.707 E.36122
G1 X118.574 Y113.054 E.37497
G1 X118.75 Y113.419 E.38869
G1 X118.889 Y113.8 E.40242
G1 X118.989 Y114.194 E.41618
G1 X119.049 Y114.595 E.4299
G1 X119.07 Y115 E.44363
G1 X119.049 Y115.405 E.45736
G1 X118.989 Y115.806 E.47108
G1 X118.889 Y116.2 E.48484
G1 X118.75 Y116.581 E.49857
G1 X118.574 Y116.946 E.51229
G1 X118.363 Y117.293 E.52604
G1 X118.118 Y117.616 E.53976
G1 X117.842 Y117.913 E.55348
G1 X117.537 Y118.182 E.56725
G1 X117.208 Y118.419 E.58097
G1 X116.857 Y118.622 E.59469
G1 X116.487 Y118.788 E.60842
G1 X116.102 Y118.918 E.62217
G1 X115.707 Y119.008 E.63588
G1 X115.304 Y119.058 E.64963
G1 X114.899 Y119.068 E.66334
G1 X114.494 Y119.038 E.67709
G1 X114.094 Y118.968 E.69084
G1 X113.704 Y118.858 E.70456
G1 X113.326 Y118.71 E.7183
G1 X112.965 Y118.524 E.73205
G1 X112.624 Y118.304 E.74579
G1 X112.307 Y118.051 E.75952
G1 X112.017 Y117.768 E.77324
G1 X111.756 Y117.457 E.78698
G1 X111.527 Y117.122 E.80072
G1 X111.333 Y116.766 E.81444
G1 X111.176 Y116.392 E.82817
G1 X111.056 Y116.004 E.84192
G1 X110.976 Y115.607 E.85563
G1 X110.954 Y115.384 E.86321
G1 X110.954 Y115.384 F7200
G1 X111.328 Y115.287
;TYPE:Perimeter
;WIDTH:0.4
G1 F1500
G1 X111.317 Y115.184 E.86629
G1 X111.317 Y114.816 E.87722
G1 X111.354 Y114.45 E.88814
G1 X111.427 Y114.09 E.89905
G1 X111.535 Y113.739 E.90995
G1 X111.678 Y113.4 E.92087
G1 X111.854 Y113.077 E.93179
G1 X112.061 Y112.774 E.94269
G1 X112.297 Y112.492 E.95361
G1 X112.56 Y112.235 E.96453
G1 X112.848 Y112.006 E.97545
G1 X113.156 Y111.807 E.98634
G1 X113.484 Y111.639 E.99728
G1 X113.826 Y111.505 E1.00819
G1 X114.18 Y111.405 E1.01911
G1 X114.542 Y111.341 E1.03002
G1 X114.908 Y111.314 E1.04092
G1 X115.13 Y111.32 E1.04751
G1 X115.648 Y111.371 E1.06296
G1 X115.999 Y111.451 E1.07365
G1 X116.347 Y111.568 E1.08455
G1 X116.682 Y111.719 E1.09546
G1 X117 Y111.903 E1.10637
G1 X117.299 Y112.117 E1.11729
G1 X117.575 Y112.361 E1.12823
G1 X117.825 Y112.63 E1.13913
G1 X118.046 Y112.923 E1.15003
G1 X118.238 Y113.237 E1.16096
G1 X118.398 Y113.568 E1.17188
G1 X118.523 Y113.913 E1.18278
G1 X118.614 Y114.269 E1.19369
G1 X118.669 Y114.633 E1.20462
G1 X118.687 Y115 E1.21553
G1 X118.669 Y115.367 E1.22644
G1 X118.614 Y115.731 E1.23737
G1 X118.523 Y116.087 E1.24828
G1 X118.398 Y116.432 E1.25918
G1 X118.238 Y116.763 E1.2701
G1 X118.046 Y117.077 E1.28103
G1 X117.825 Y117.37 E1.29193
G1 X117.575 Y117.64 E1.30286
G1 X117.299 Y117.883 E1.31378
G1 X117 Y118.097 E1.3247
G1 X116.682 Y118.281 E1.33561
G1 X116.347 Y118.432 E1.34652
G1 X115.999 Y118.549 E1.35742
G1 X115.64 Y118.631 E1.36835
G1 X115.276 Y118.677 E1.37924
G1 X114.908 Y118.686 E1.39017
G1 X114.542 Y118.659 E1.40107
G1 X114.18 Y118.595 E1.41198
G1 X113.826 Y118.495 E1.4229
G1 X113.484 Y118.361 E1.43381
G1 X113.156 Y118.193 E1.44475
G1 X112.848 Y117.994 E1.45564
G1 X112.56 Y117.765 E1.46656
G1 X112.297 Y117.508 E1.47748
G1 X112.061 Y117.226 E1.4884
G1 X111.854 Y116.923 E1.4993
G1 X111.678 Y116.6 E1.51022
G1 X111.535 Y116.261 E1.52114
G1 X111.427 Y115.91 E1.53204
G1 X111.354 Y115.55 E1.54295
G1 X111.334 Y115.346 E1.54904
G1 X111.334 Y115.346 F7200
G1 X112.253 Y115.002
;TYPE:External perimeter
;WIDTH:0.45
G1 F1500
G1 X112.253 Y115 E1.54911
G1 X112.333 Y114.343 E1.57151
G1 X112.568 Y113.723 E1.59395
